X:0018
T:For a' that and a' that.
M:2/4
L:1/8
Q:1/4=144
I: :: ::
Z:Jack Campin * www.campin.me.uk * 2009
K:A Mixolydian
g|fgaf |geeg|fgaA    |B2Bg|fgaf |geeg|fedB|A2A:|
B|d>edA|Beef|d/d/d fd|B2Be|d>edA|Beeg|fedB|A2A:| 
<end>
<start>
